X:40
T:Two and Threequarters Squared
M:2/4
L:1/16
C:Taz Tarry
S:Copyright B.Tarry, March 1985
R:Polka
Q:1/4=120
K:G
d4B4|A2FAG4|A2DD E2DD|=F2DD ^F2DD|d4B4|A2FAG4|A2DD E2DD|E2F2G4:|
K:D
B4A4|A2FD E2D2|A2AA B2A2|=c2c^c d2A2|B4A4|A2FD E2D2|A2AA B2A2|F2AFD4:|

